public/icons/logo.svg

<svg width="498" height="29" viewBox="0 0 498 29" fill="none" xmlns="http://www.w3.org/2000/svg">
<path d="M4.84019 24.6775V16.6241H20.0115C22.3702 16.6241 24.2823 14.712 24.2823 12.3533H4.84019V4.74731H23.6722C26.0308 4.74731 27.9429 2.83523 27.9429 0.476562H0V28.9482H28.3497C28.3497 26.5896 26.4376 24.6775 24.0789 24.6775H4.84019Z" fill="#F5F5F5"/>
<path d="M104.471 0.476562H73.7219C73.7219 2.83523 75.634 4.74731 77.9927 4.74731H86.6155V28.9482H91.4964V4.74731H100.201C102.559 4.74731 104.471 2.83523 104.471 0.476562Z" fill="#F5F5F5"/>
<path d="M156.936 24.6775V16.6241H172.108C174.466 16.6241 176.379 14.712 176.379 12.3533H156.936V4.74731H175.768C178.127 4.74731 180.039 2.83523 180.039 0.476562H152.096V28.9482H180.446C180.446 26.5896 178.534 24.6775 176.175 24.6775H156.936Z" fill="#F5F5F5"/>
<path d="M261.042 28.9482L251.809 18.373C256.771 17.4782 260.188 14.4684 260.188 9.54683C260.188 3.64912 255.307 0.476562 248.677 0.476562H229.316V28.9482C232.012 28.9482 234.197 26.763 234.197 24.0674V18.6171H246.196L255.022 28.9482H261.042ZM234.156 14.4277V4.74731H248.352C252.419 4.74731 255.185 6.04888 255.185 9.5875C255.185 13.1261 252.419 14.4277 248.352 14.4277H234.156Z" fill="#F5F5F5"/>
<path d="M336.074 0.476562V22.0744L318.418 4.18229C316.078 1.81125 312.886 0.476562 309.555 0.476562V28.9482H314.273V6.49629L333.487 25.8857C335.429 27.8457 338.074 28.9482 340.833 28.9482V0.476562H336.074Z" fill="#F5F5F5"/>
<path d="M418.824 28.9482H424.152L410.054 2.84012C409.267 1.38409 407.746 0.476562 406.091 0.476562C404.438 0.476562 402.918 1.38216 402.131 2.83575L387.993 28.9482H393.281L396.901 22.0744H415.163L418.824 28.9482ZM399.097 17.9256L406.052 4.74731L413.007 17.9256H399.097Z" fill="#F5F5F5"/>
<path d="M476.224 24.6368V5.35743C476.224 2.6618 474.039 0.476562 471.343 0.476562V28.9482H497.211C497.211 26.5671 495.281 24.6368 492.9 24.6368H476.224Z" fill="#F5F5F5"/>
</svg>

<svg width="498" height="29" fill="none" xmlns="http://www.w3.org/2000/svg"><path d="M4.84 24.677v-8.053h15.172a4.27 4.27 0 0 0 4.27-4.27H4.84V4.746h18.832a4.27 4.27 0 0 0 4.27-4.27H0v28.471h28.35a4.27 4.27 0 0 0-4.271-4.27H4.84ZM104.471.477h-30.75a4.27 4.27 0 0 0 4.272 4.27h8.623v24.201h4.88v-24.2h8.705a4.27 4.27 0 0 0 4.27-4.271ZM156.936 24.677v-8.053h15.172a4.271 4.271 0 0 0 4.271-4.27h-19.443V4.746h18.832a4.27 4.27 0 0 0 4.271-4.27h-27.943v28.471h28.35a4.27 4.27 0 0 0-4.271-4.27h-19.239ZM261.042 28.948l-9.233-10.575c4.962-.895 8.379-3.905 8.379-8.826 0-5.898-4.881-9.07-11.511-9.07h-19.361v28.471a4.88 4.88 0 0 0 4.881-4.88v-5.45h11.999l8.826 10.33h6.02Zm-26.886-14.52v-9.68h14.196c4.067 0 6.833 1.3 6.833 4.84 0 3.538-2.766 4.84-6.833 4.84h-14.196ZM336.074.477v21.597L318.418 4.182a12.452 12.452 0 0 0-8.863-3.705v28.471h4.718V6.496l19.214 19.39a10.341 10.341 0 0 0 7.346 3.062V.477h-4.759ZM418.824 28.948h5.328L410.054 2.84a4.505 4.505 0 0 0-7.923-.004l-14.138 26.112h5.288l3.62-6.874h18.262l3.661 6.874Zm-19.727-11.022 6.955-13.179 6.955 13.179h-13.91ZM476.224 24.637V5.357a4.88 4.88 0 0 0-4.881-4.88v28.471h25.868a4.311 4.311 0 0 0-4.311-4.311h-16.676Z" fill="#F5F5F5"/></svg>
